projects/frontend/src/assets/icons/show.svg

<svg width="24" height="24" viewBox="0 0 24 24" fill="none" xmlns="http://www.w3.org/2000/svg">
<path fill-rule="evenodd" clip-rule="evenodd" d="M12 17C16.112 17 18.5866 13.933 19.683 12.1047C19.708 12.063 19.7149 12.0278 19.7149 12C19.7149 11.9722 19.708 11.937 19.683 11.8953C18.5866 10.067 16.112 7 12 7C7.88795 7 5.41342 10.067 4.31699 11.8953C4.29194 11.937 4.28509 11.9722 4.28509 12C4.28509 12.0278 4.29194 12.063 4.31699 12.1047C5.41342 13.933 7.88795 17 12 17ZM21.3982 13.1334C20.2099 15.1148 17.215 19 12 19C6.78497 19 3.79007 15.1148 2.60179 13.1334C2.17952 12.4292 2.17952 11.5708 2.60179 10.8666C3.79007 8.88521 6.78497 5 12 5C17.215 5 20.2099 8.88521 21.3982 10.8666C21.8205 11.5708 21.8205 12.4292 21.3982 13.1334Z" fill="black"/>
<path fill-rule="evenodd" clip-rule="evenodd" d="M12 13C12.5523 13 13 12.5523 13 12C13 11.4477 12.5523 11 12 11C11.4477 11 11 11.4477 11 12C11 12.5523 11.4477 13 12 13ZM12 15C13.6569 15 15 13.6569 15 12C15 10.3431 13.6569 9 12 9C10.3431 9 9 10.3431 9 12C9 13.6569 10.3431 15 12 15Z" fill="black"/>
</svg>

<svg xmlns="http://www.w3.org/2000/svg" width="24" height="24" fill="none" viewBox="0 0 24 24">
  <path fill="currentColor" fill-rule="evenodd" d="M12 17c4.112 0 6.587-3.067 7.683-4.895a.2.2 0 0 0 .032-.105.2.2 0 0 0-.032-.105C18.587 10.067 16.112 7 12 7s-6.587 3.067-7.683 4.895a.2.2 0 0 0-.032.105.2.2 0 0 0 .032.105C5.413 13.933 7.888 17 12 17Zm9.398-3.867C20.21 15.115 17.215 19 12 19s-8.21-3.885-9.398-5.867a2.186 2.186 0 0 1 0-2.266C3.79 8.885 6.785 5 12 5s8.21 3.885 9.398 5.867a2.186 2.186 0 0 1 0 2.266Z" clip-rule="evenodd"/>
  <path fill="currentColor" fill-rule="evenodd" d="M12 13a1 1 0 1 0 0-2 1 1 0 0 0 0 2Zm0 2a3 3 0 1 0 0-6 3 3 0 0 0 0 6Z" clip-rule="evenodd"/>
</svg>
